src/epub/images/titlepage.svg

<?xml version="1.0" encoding="utf-8"?>
<svg xmlns="http://www.w3.org/2000/svg" xmlns:svg="http://www.w3.org/2000/svg" version="1.1" viewBox="0 0 1400 440">
	<title>The titlepage for the Standard Ebooks edition of The Princess and the Goblin, by George MacDonald</title>
	<g>
		<path d="m 329.13303,68.245613 18.33919,0 0,61.754387 17.59064,0 0,-61.754387 18.33918,0 0,-15.438597 -54.26901,0 0,15.438597 z"/>
		<path d="m 412.32748,99.029239 24.88889,0 0,30.970761 17.59064,0 0,-77.192984 -17.59064,0 0,30.783626 -24.88889,0 0,-30.783626 -17.59064,0 0,77.192984 17.59064,0 0,-30.970761 z"/>
		<path d="m 515.17251,52.807016 -44.16374,0 0,77.192984 44.16374,0 0,-15.4386 -26.5731,0 0,-15.532161 25.4503,0 0,-15.438597 -25.4503,0 0,-15.345029 26.5731,0 0,-15.438597 z"/>
		<path d="m 560.86989,52.807016 0,77.192984 17.59064,0 0,-28.63158 10.5731,0 c 15.06433,0 26.38596,-8.888888 26.38596,-24.795322 0,-16 -11.32163,-23.766082 -26.38596,-23.766082 l -28.16374,0 z m 17.59064,34.526317 0,-20.491229 4.95906,0 c 6.92398,0 13.47369,2.339181 13.47369,10.292398 0,7.859649 -6.54971,10.198831 -13.47369,10.198831 l -4.95906,0 z"/>
		<path d="m 628.18713,52.807016 0,77.192984 17.59064,0 0,-30.502925 L 669.35672,130 691.7193,130 665.1462,98.093567 c 9.45029,-2.994152 15.81286,-10.760234 15.81286,-22.362574 0,-15.157895 -10.8538,-22.923977 -25.16959,-22.923977 l -27.60234,0 z m 17.59064,34.245615 0,-20.210527 2.05848,0 c 6.64328,0 14.5965,0.467836 14.5965,10.105263 0,9.637428 -7.95322,10.105264 -14.5965,10.105264 l -2.05848,0 z"/>
		<path d="m 717.8465,52.807016 -17.59064,0 0,77.192984 17.59064,0 0,-77.192984 z"/>
		<path d="m 751.72077,82.093566 0.18713,0 L 782.59796,130 l 17.59064,0 0,-77.192984 -17.59064,0 0,47.906434 -0.18713,0 -30.69006,-47.906434 -17.59065,0 0,77.192984 17.59065,0 0,-47.906434 z"/>
		<path d="m 854.58481,114.09357 c -17.68421,0 -25.45029,-12.35088 -25.45029,-22.736846 0,-10.292397 7.76608,-22.643275 25.45029,-22.643275 8.98246,0 15.1579,4.77193 15.1579,4.77193 l 7.48538,-14.97076 c 0,0 -8.60819,-7.111112 -25.35673,-7.111112 -21.89474,0 -41.82456,17.964913 -41.82456,40.140352 0,22.081871 20.02339,39.859651 41.82456,39.859651 16.74854,0 25.35673,-7.11111 25.35673,-7.11111 l -7.48538,-14.97076 c 0,0 -6.17544,4.77193 -15.1579,4.77193 z"/>
		<path d="m 933.21348,52.807016 -44.16374,0 0,77.192984 44.16374,0 0,-15.4386 -26.5731,0 0,-15.532161 25.4503,0 0,-15.438597 -25.4503,0 0,-15.345029 26.5731,0 0,-15.438597 z"/>
		<path d="m 976.77049,51.403507 c -12.44444,0 -25.16959,9.169591 -25.16959,23.578948 0,8.046784 5.4269,15.251462 14.69006,19.836258 9.16959,4.584795 17.40351,7.111107 17.40351,12.725147 0,7.20468 -7.29825,7.57895 -11.1345,7.57895 -8.60819,0 -18.90059,-8.70176 -18.90059,-8.70176 l -8.79532,14.78363 c 0,0 10.94737,10.19883 29.00585,10.19883 15.06432,0 29.09939,-6.45614 29.09939,-24.88889 0,-10.105264 -9.45027,-17.40351 -18.05846,-21.052632 -8.79532,-3.742691 -16.09356,-6.83041 -16.09356,-11.134504 0,-4.210526 3.18128,-6.923976 9.16959,-6.923976 7.95321,0 15.62573,5.333333 15.62573,5.333333 l 7.1111,-14.035088 c 0,0 -9.91812,-7.298246 -23.95321,-7.298246 z"/>
		<path d="m 1042.8085,51.403507 c -12.4444,0 -25.1696,9.169591 -25.1696,23.578948 0,8.046784 5.4269,15.251462 14.6901,19.836258 9.1696,4.584795 17.4035,7.111107 17.4035,12.725147 0,7.20468 -7.2983,7.57895 -11.1345,7.57895 -8.6082,0 -18.9006,-8.70176 -18.9006,-8.70176 l -8.7953,14.78363 c 0,0 10.9474,10.19883 29.0058,10.19883 15.0644,0 29.0994,-6.45614 29.0994,-24.88889 0,-10.105264 -9.4502,-17.40351 -18.0584,-21.052632 -8.7954,-3.742691 -16.0936,-6.83041 -16.0936,-11.134504 0,-4.210526 3.1813,-6.923976 9.1696,-6.923976 7.9532,0 15.6257,5.333333 15.6257,5.333333 l 7.1111,-14.035088 c 0,0 -9.9181,-7.298246 -23.9532,-7.298246 z"/>
	</g>
	<g>
		<path d="m 298.11915,152.80702 -16.28071,0 L 250.68055,230 l 18.90058,0 5.70761,-15.4386 29.38011,0 5.70761,15.4386 18.90058,0 -31.15789,-77.19298 z m 0.5614,46.31579 -17.40351,0 8.60819,-22.45614 0.18713,0 8.60819,22.45614 z"/>
		<path d="m 354.78728,182.09357 0.18713,0 30.69006,47.90643 17.59064,0 0,-77.19298 -17.59064,0 0,47.90643 -0.18714,0 -30.69005,-47.90643 -17.59065,0 0,77.19298 17.59065,0 0,-47.90643 z"/>
		<path d="m 419.49927,152.80702 0,77.19298 22.36258,0 c 21.23976,0 38.92398,-16.09357 38.92398,-38.64328 0,-22.45614 -17.77778,-38.5497 -38.92398,-38.5497 l -22.36258,0 z m 17.59065,61.47368 0,-45.75439 2.71345,0 c 13.09941,0 21.9883,10.0117 21.9883,22.92398 -0.0936,12.91228 -8.98245,22.83041 -21.9883,22.83041 l -2.71345,0 z"/>
		<path d="m 514.72881,168.24561 18.33918,0 0,61.75439 17.59064,0 0,-61.75439 18.33919,0 0,-15.43859 -54.26901,0 0,15.43859 z"/>
		<path d="m 597.92326,199.02924 24.88889,0 0,30.97076 17.59064,0 0,-77.19298 -17.59064,0 0,30.78362 -24.88889,0 0,-30.78362 -17.59064,0 0,77.19298 17.59064,0 0,-30.97076 z"/>
		<path d="m 700.76827,152.80702 -44.16374,0 0,77.19298 44.16374,0 0,-15.4386 -26.5731,0 0,-15.53216 25.4503,0 0,-15.4386 -25.4503,0 0,-15.34503 26.5731,0 0,-15.43859 z"/>
		<path d="m 816.26682,186.77193 -35.64913,0 0,13.56725 17.77778,0 c 0,9.45029 -8.32749,14.87719 -16.74854,14.87719 -10.8538,0 -19.64912,-10.66666 -19.64912,-23.76608 0,-13.38012 8.79532,-24.14035 19.64912,-24.14035 6.83041,0 12.72515,2.71345 17.21638,9.91813 l 11.50877,-12.63158 c -6.73684,-8.14035 -16.18714,-13.19298 -29.75439,-13.19298 -21.7076,0 -37.61403,17.87134 -37.61403,40.04678 0,22.08187 16.8421,39.95322 37.61403,39.95322 15.1579,0 31.4386,-8.32749 35.64913,-27.88304 l 0,-16.74854 z"/>
		<path d="m 825.48904,191.35672 c 0,22.54971 16.09357,40.04679 38.92398,40.04679 22.17543,0 38.83041,-17.49708 38.83041,-40.04679 0,-22.5497 -17.40351,-39.95321 -38.83041,-39.95321 -21.23977,0 -38.92398,17.40351 -38.92398,39.95321 z m 18.99415,0 c 0,-11.50877 6.36257,-23.01754 19.92983,-23.01754 13.66081,0 19.83625,11.50877 19.83625,23.01754 0,11.50878 -5.80117,23.01755 -19.83625,23.01755 -14.40936,0 -19.92983,-11.50877 -19.92983,-23.01755 z"/>
		<path d="m 916.0051,152.80702 0,77.19298 29.28655,0 c 16,0 25.26316,-8.79532 25.26316,-21.52047 0,-12.44444 -6.83041,-17.77778 -16.46783,-19.46199 6.5497,-3.36842 9.63742,-9.45029 9.63742,-16.5614 0,-14.69006 -10.47953,-19.64912 -23.76608,-19.64912 l -23.95322,0 z m 17.59065,30.22222 0,-16.65497 1.40351,0 c 7.67251,0 11.6959,2.33918 11.6959,7.85965 0,6.45614 -4.11696,8.79532 -11.6959,8.79532 l -1.40351,0 z m 0,33.40351 0,-18.24562 5.52047,0 c 8.32748,0 12.91228,2.52632 12.91228,9.63743 0,6.08187 -4.5848,8.60819 -12.91228,8.60819 l -5.52047,0 z"/>
		<path d="m 1000.913,152.80702 -17.59064,0 0,77.19298 44.16374,0 0,-15.4386 -26.5731,0 0,-61.75438 z"/>
		<path d="m 1058.7273,152.80702 -17.5906,0 0,77.19298 17.5906,0 0,-77.19298 z"/>
		<path d="m 1092.6016,182.09357 0.1871,0 30.6901,47.90643 17.5906,0 0,-77.19298 -17.5906,0 0,47.90643 -0.1871,0 -30.6901,-47.90643 -17.5906,0 0,77.19298 17.5906,0 0,-47.90643 z"/>
	</g>
	<g>
		<path d="m 309.86459,357.57895 -26.73685,0 0,10.17544 13.33334,0 c 0,7.08772 -6.24562,11.15789 -12.56141,11.15789 -8.14035,0 -14.73684,-8 -14.73684,-17.82456 0,-10.03509 6.59649,-18.10526 14.73684,-18.10526 5.12281,0 9.54386,2.03508 12.91229,7.43859 l 8.63157,-9.47368 c -5.05263,-6.10526 -12.14035,-9.89474 -22.31579,-9.89474 -16.2807,0 -28.21052,13.40351 -28.21052,30.03509 0,16.5614 12.63158,29.96491 28.21052,29.96491 11.36843,0 23.57895,-6.24561 26.73685,-20.91228 l 0,-12.5614 z"/>
		<path d="m 353.75055,332.10526 -33.12281,0 0,57.89474 33.12281,0 0,-11.57895 -19.92982,0 0,-11.64912 19.08771,0 0,-11.57895 -19.08771,0 0,-11.50877 19.92982,0 0,-11.57895 z"/>
		<path d="m 363.73849,361.01754 c 0,16.91228 12.07018,30.03509 29.19298,30.03509 16.63158,0 29.12281,-13.12281 29.12281,-30.03509 0,-16.91228 -13.05263,-29.96491 -29.12281,-29.96491 -15.92982,0 -29.19298,13.05263 -29.19298,29.96491 z m 14.24562,0 c 0,-8.63157 4.77193,-17.26315 14.94736,-17.26315 10.24562,0 14.8772,8.63158 14.8772,17.26315 0,8.63158 -4.35088,17.26316 -14.8772,17.26316 -10.80701,0 -14.94736,-8.63158 -14.94736,-17.26316 z"/>
		<path d="m 432.87556,332.10526 0,57.89474 13.19298,0 0,-22.87719 17.68421,22.87719 16.77193,0 -19.92983,-23.92982 c 7.08772,-2.24562 11.85965,-8.07018 11.85965,-16.77193 0,-11.36842 -8.14035,-17.19299 -18.87719,-17.19299 l -20.70175,0 z m 13.19298,25.68421 0,-15.15789 1.54386,0 c 4.98245,0 10.94737,0.35088 10.94737,7.57895 0,7.22807 -5.96492,7.57894 -10.94737,7.57894 l -1.54386,0 z"/>
		<path d="m 540.52796,357.57895 -26.73684,0 0,10.17544 13.33333,0 c 0,7.08772 -6.24561,11.15789 -12.5614,11.15789 -8.14035,0 -14.73684,-8 -14.73684,-17.82456 0,-10.03509 6.59649,-18.10526 14.73684,-18.10526 5.12281,0 9.54386,2.03508 12.91228,7.43859 l 8.63158,-9.47368 c -5.05263,-6.10526 -12.14035,-9.89474 -22.31579,-9.89474 -16.2807,0 -28.21053,13.40351 -28.21053,30.03509 0,16.5614 12.63158,29.96491 28.21053,29.96491 11.36842,0 23.57895,-6.24561 26.73684,-20.91228 l 0,-12.5614 z"/>
		<path d="m 584.41392,332.10526 -33.12281,0 0,57.89474 33.12281,0 0,-11.57895 -19.92982,0 0,-11.64912 19.08772,0 0,-11.57895 -19.08772,0 0,-11.50877 19.92982,0 0,-11.57895 z"/>
		<path d="m 669.04661,390 13.19298,0 -5.19298,-57.89474 -14.03509,0 -12.84211,33.40351 -12.8421,-33.40351 -14.03509,0 -5.19298,57.89474 13.19298,0 2.73684,-34.31579 0.35088,0 11.85965,33.96491 7.85965,0 11.85965,-33.96491 0.35087,0 L 669.04661,390 Z"/>
		<path d="m 721.92817,332.10526 -12.21052,0 L 686.34923,390 l 14.17544,0 4.2807,-11.57895 22.03508,0 4.28071,11.57895 14.17544,0 -23.36843,-57.89474 z m 0.42106,34.73685 -13.05263,0 6.45614,-16.84211 0.14035,0 6.45614,16.84211 z"/>
		<path d="m 781.10033,378.07018 c -13.26316,0 -19.08772,-9.26316 -19.08772,-17.05264 0,-7.71929 5.82456,-16.98245 19.08772,-16.98245 6.73684,0 11.36842,3.57895 11.36842,3.57895 l 5.61404,-11.22807 c 0,0 -6.45615,-5.33334 -19.01755,-5.33334 -16.42105,0 -31.36842,13.47369 -31.36842,30.10527 0,16.5614 15.01754,29.89473 31.36842,29.89473 12.5614,0 19.01755,-5.33333 19.01755,-5.33333 l -5.61404,-11.22807 c 0,0 -4.63158,3.57895 -11.36842,3.57895 z"/>
		<path d="m 808.19901,332.10526 0,57.89474 16.77193,0 c 15.92983,0 29.19298,-12.07018 29.19298,-28.98246 0,-16.8421 -13.33333,-28.91228 -29.19298,-28.91228 l -16.77193,0 z m 13.19299,46.10527 0,-34.31579 2.03508,0 c 9.82456,0 16.49123,7.50877 16.49123,17.19298 -0.0702,9.68421 -6.73684,17.12281 -16.49123,17.12281 l -2.03508,0 z"/>
		<path d="m 862.41173,361.01754 c 0,16.91228 12.07017,30.03509 29.19298,30.03509 16.63158,0 29.1228,-13.12281 29.1228,-30.03509 0,-16.91228 -13.05263,-29.96491 -29.1228,-29.96491 -15.92983,0 -29.19298,13.05263 -29.19298,29.96491 z m 14.24561,0 c 0,-8.63157 4.77193,-17.26315 14.94737,-17.26315 10.24561,0 14.87719,8.63158 14.87719,17.26315 0,8.63158 -4.35088,17.26316 -14.87719,17.26316 -10.80702,0 -14.94737,-8.63158 -14.94737,-17.26316 z"/>
		<path d="m 944.74179,354.07018 0.14035,0 23.01754,35.92982 13.19298,0 0,-57.89474 -13.19298,0 0,35.92983 -0.14035,0 -23.01754,-35.92983 -13.19298,0 0,57.89474 13.19298,0 0,-35.92982 z"/>
		<path d="m 1023.9292,332.10526 -12.2105,0 L 988.3503,390 l 14.1754,0 4.2807,-11.57895 22.0351,0 4.2807,11.57895 14.1755,0 -23.3685,-57.89474 z m 0.4211,34.73685 -13.0526,0 6.4561,-16.84211 0.1404,0 6.4561,16.84211 z"/>
		<path d="m 1067.6804,332.10526 -13.193,0 0,57.89474 33.1228,0 0,-11.57895 -19.9298,0 0,-46.31579 z"/>
		<path d="m 1099.0981,332.10526 0,57.89474 16.772,0 c 15.9298,0 29.1929,-12.07018 29.1929,-28.98246 0,-16.8421 -13.3333,-28.91228 -29.1929,-28.91228 l -16.772,0 z m 13.193,46.10527 0,-34.31579 2.0351,0 c 9.8246,0 16.4912,7.50877 16.4912,17.19298 -0.07,9.68421 -6.7368,17.12281 -16.4912,17.12281 l -2.0351,0 z"/>
	</g>
</svg>

<?xml version="1.0" encoding="utf-8"?>
<svg xmlns="http://www.w3.org/2000/svg" xmlns:svg="http://www.w3.org/2000/svg" version="1.1" viewBox="0 0 1400 440">
	<title>The titlepage for the Standard Ebooks edition of The Princess and the Goblin, by George MacDonald</title>
	<g aria-label="THE PRINCESS">
		<path d="m 329.13303,68.245613 h 18.33919 V 130 h 17.59064 V 68.245613 h 18.33918 V 52.807016 h -54.26901 z"/>
		<path d="m 412.32748,99.029239 h 24.88889 V 130 h 17.59064 V 52.807016 H 437.21637 V 83.590642 H 412.32748 V 52.807016 H 394.73684 V 130 h 17.59064 z"/>
		<path d="M 515.17251,52.807016 H 471.00877 V 130 h 44.16374 v -15.4386 h -26.5731 V 99.029239 h 25.4503 V 83.590642 h -25.4503 V 68.245613 h 26.5731 z"/>
		<path d="M 560.86989,52.807016 V 130 h 17.59064 v -28.63158 h 10.5731 c 15.06433,0 26.38596,-8.888888 26.38596,-24.795322 0,-16 -11.32163,-23.766082 -26.38596,-23.766082 z m 17.59064,34.526317 V 66.842104 h 4.95906 c 6.92398,0 13.47369,2.339181 13.47369,10.292398 0,7.859649 -6.54971,10.198831 -13.47369,10.198831 z"/>
		<path d="M 628.18713,52.807016 V 130 h 17.59064 V 99.497075 L 669.35672,130 H 691.7193 L 665.1462,98.093567 c 9.45029,-2.994152 15.81286,-10.760234 15.81286,-22.362574 0,-15.157895 -10.8538,-22.923977 -25.16959,-22.923977 z m 17.59064,34.245615 V 66.842104 h 2.05848 c 6.64328,0 14.5965,0.467836 14.5965,10.105263 0,9.637428 -7.95322,10.105264 -14.5965,10.105264 z"/>
		<path d="M 717.8465,52.807016 H 700.25586 V 130 h 17.59064 z"/>
		<path d="m 751.72077,82.093566 h 0.18713 L 782.59796,130 H 800.1886 V 52.807016 h -17.59064 v 47.906434 h -0.18713 L 751.72077,52.807016 H 734.13012 V 130 h 17.59065 z"/>
		<path d="m 854.58481,114.09357 c -17.68421,0 -25.45029,-12.35088 -25.45029,-22.736846 0,-10.292397 7.76608,-22.643275 25.45029,-22.643275 8.98246,0 15.1579,4.77193 15.1579,4.77193 l 7.48538,-14.97076 c 0,0 -8.60819,-7.111112 -25.35673,-7.111112 -21.89474,0 -41.82456,17.964913 -41.82456,40.140352 0,22.081871 20.02339,39.859651 41.82456,39.859651 16.74854,0 25.35673,-7.11111 25.35673,-7.11111 l -7.48538,-14.97076 c 0,0 -6.17544,4.77193 -15.1579,4.77193 z"/>
		<path d="M 933.21348,52.807016 H 889.04974 V 130 h 44.16374 v -15.4386 h -26.5731 V 99.029239 h 25.4503 V 83.590642 h -25.4503 V 68.245613 h 26.5731 z"/>
		<path d="m 976.77049,51.403507 c -12.44444,0 -25.16959,9.169591 -25.16959,23.578948 0,8.046784 5.4269,15.251462 14.69006,19.836258 9.16959,4.584795 17.40351,7.111107 17.40351,12.725147 0,7.20468 -7.29825,7.57895 -11.1345,7.57895 -8.60819,0 -18.90059,-8.70176 -18.90059,-8.70176 l -8.79532,14.78363 c 0,0 10.94737,10.19883 29.00585,10.19883 15.06432,0 29.09939,-6.45614 29.09939,-24.88889 0,-10.105264 -9.45027,-17.40351 -18.05846,-21.052632 -8.79532,-3.742691 -16.09356,-6.83041 -16.09356,-11.134504 0,-4.210526 3.18128,-6.923976 9.16959,-6.923976 7.95321,0 15.62573,5.333333 15.62573,5.333333 l 7.1111,-14.035088 c 0,0 -9.91812,-7.298246 -23.95321,-7.298246 z"/>
		<path d="m 1042.8085,51.403507 c -12.4444,0 -25.1696,9.169591 -25.1696,23.578948 0,8.046784 5.4269,15.251462 14.6901,19.836258 9.1696,4.584795 17.4035,7.111107 17.4035,12.725147 0,7.20468 -7.2983,7.57895 -11.1345,7.57895 -8.6082,0 -18.9006,-8.70176 -18.9006,-8.70176 l -8.7953,14.78363 c 0,0 10.9474,10.19883 29.0058,10.19883 15.0644,0 29.0994,-6.45614 29.0994,-24.88889 0,-10.105264 -9.4502,-17.40351 -18.0584,-21.052632 -8.7954,-3.742691 -16.0936,-6.83041 -16.0936,-11.134504 0,-4.210526 3.1813,-6.923976 9.1696,-6.923976 7.9532,0 15.6257,5.333333 15.6257,5.333333 l 7.1111,-14.035088 c 0,0 -9.9181,-7.298246 -23.9532,-7.298246 z"/>
	</g>
	<g aria-label="AND THE GOBLIN">
		<path d="M 298.11915,152.80702 H 281.83844 L 250.68055,230 h 18.90058 l 5.70761,-15.4386 h 29.38011 L 310.37646,230 h 18.90058 z m 0.5614,46.31579 h -17.40351 l 8.60819,-22.45614 h 0.18713 z"/>
		<path d="m 354.78728,182.09357 h 0.18713 L 385.66447,230 h 17.59064 v -77.19298 h -17.59064 v 47.90643 h -0.18714 L 354.78728,152.80702 H 337.19663 V 230 h 17.59065 z"/>
		<path d="M 419.49927,152.80702 V 230 h 22.36258 c 21.23976,0 38.92398,-16.09357 38.92398,-38.64328 0,-22.45614 -17.77778,-38.5497 -38.92398,-38.5497 z m 17.59065,61.47368 v -45.75439 h 2.71345 c 13.09941,0 21.9883,10.0117 21.9883,22.92398 -0.0936,12.91228 -8.98245,22.83041 -21.9883,22.83041 z"/>
		<path d="m 514.72881,168.24561 h 18.33918 V 230 h 17.59064 v -61.75439 h 18.33919 v -15.43859 h -54.26901 z"/>
		<path d="m 597.92326,199.02924 h 24.88889 V 230 h 17.59064 v -77.19298 h -17.59064 v 30.78362 H 597.92326 V 152.80702 H 580.33262 V 230 h 17.59064 z"/>
		<path d="M 700.76827,152.80702 H 656.60453 V 230 h 44.16374 v -15.4386 h -26.5731 v -15.53216 h 25.4503 v -15.4386 h -25.4503 v -15.34503 h 26.5731 z"/>
		<path d="m 816.26682,186.77193 h -35.64913 v 13.56725 h 17.77778 c 0,9.45029 -8.32749,14.87719 -16.74854,14.87719 -10.8538,0 -19.64912,-10.66666 -19.64912,-23.76608 0,-13.38012 8.79532,-24.14035 19.64912,-24.14035 6.83041,0 12.72515,2.71345 17.21638,9.91813 l 11.50877,-12.63158 c -6.73684,-8.14035 -16.18714,-13.19298 -29.75439,-13.19298 -21.7076,0 -37.61403,17.87134 -37.61403,40.04678 0,22.08187 16.8421,39.95322 37.61403,39.95322 15.1579,0 31.4386,-8.32749 35.64913,-27.88304 z"/>
		<path d="m 825.48904,191.35672 c 0,22.54971 16.09357,40.04679 38.92398,40.04679 22.17543,0 38.83041,-17.49708 38.83041,-40.04679 0,-22.5497 -17.40351,-39.95321 -38.83041,-39.95321 -21.23977,0 -38.92398,17.40351 -38.92398,39.95321 z m 18.99415,0 c 0,-11.50877 6.36257,-23.01754 19.92983,-23.01754 13.66081,0 19.83625,11.50877 19.83625,23.01754 0,11.50878 -5.80117,23.01755 -19.83625,23.01755 -14.40936,0 -19.92983,-11.50877 -19.92983,-23.01755 z"/>
		<path d="M 916.0051,152.80702 V 230 h 29.28655 c 16,0 25.26316,-8.79532 25.26316,-21.52047 0,-12.44444 -6.83041,-17.77778 -16.46783,-19.46199 6.5497,-3.36842 9.63742,-9.45029 9.63742,-16.5614 0,-14.69006 -10.47953,-19.64912 -23.76608,-19.64912 z m 17.59065,30.22222 v -16.65497 h 1.40351 c 7.67251,0 11.6959,2.33918 11.6959,7.85965 0,6.45614 -4.11696,8.79532 -11.6959,8.79532 z m 0,33.40351 v -18.24562 h 5.52047 c 8.32748,0 12.91228,2.52632 12.91228,9.63743 0,6.08187 -4.5848,8.60819 -12.91228,8.60819 z"/>
		<path d="M 1000.913,152.80702 H 983.32236 V 230 h 44.16374 v -15.4386 h -26.5731 z"/>
		<path d="m 1058.7273,152.80702 h -17.5906 V 230 h 17.5906 z"/>
		<path d="m 1092.6016,182.09357 h 0.1871 L 1123.4788,230 h 17.5906 v -77.19298 h -17.5906 v 47.90643 h -0.1871 l -30.6901,-47.90643 H 1075.011 V 230 h 17.5906 z"/>
	</g>
	<g aria-label="GEORGE MACDONALD">
		<path d="m 309.86459,357.57895 h -26.73685 v 10.17544 h 13.33334 c 0,7.08772 -6.24562,11.15789 -12.56141,11.15789 -8.14035,0 -14.73684,-8 -14.73684,-17.82456 0,-10.03509 6.59649,-18.10526 14.73684,-18.10526 5.12281,0 9.54386,2.03508 12.91229,7.43859 l 8.63157,-9.47368 c -5.05263,-6.10526 -12.14035,-9.89474 -22.31579,-9.89474 -16.2807,0 -28.21052,13.40351 -28.21052,30.03509 0,16.5614 12.63158,29.96491 28.21052,29.96491 11.36843,0 23.57895,-6.24561 26.73685,-20.91228 z"/>
		<path d="M 353.75055,332.10526 H 320.62774 V 390 h 33.12281 v -11.57895 h -19.92982 v -11.64912 h 19.08771 v -11.57895 h -19.08771 v -11.50877 h 19.92982 z"/>
		<path d="m 363.73849,361.01754 c 0,16.91228 12.07018,30.03509 29.19298,30.03509 16.63158,0 29.12281,-13.12281 29.12281,-30.03509 0,-16.91228 -13.05263,-29.96491 -29.12281,-29.96491 -15.92982,0 -29.19298,13.05263 -29.19298,29.96491 z m 14.24562,0 c 0,-8.63157 4.77193,-17.26315 14.94736,-17.26315 10.24562,0 14.8772,8.63158 14.8772,17.26315 0,8.63158 -4.35088,17.26316 -14.8772,17.26316 -10.80701,0 -14.94736,-8.63158 -14.94736,-17.26316 z"/>
		<path d="M 432.87556,332.10526 V 390 h 13.19298 V 367.12281 L 463.75275,390 h 16.77193 l -19.92983,-23.92982 c 7.08772,-2.24562 11.85965,-8.07018 11.85965,-16.77193 0,-11.36842 -8.14035,-17.19299 -18.87719,-17.19299 z m 13.19298,25.68421 v -15.15789 h 1.54386 c 4.98245,0 10.94737,0.35088 10.94737,7.57895 0,7.22807 -5.96492,7.57894 -10.94737,7.57894 z"/>
		<path d="m 540.52796,357.57895 h -26.73684 v 10.17544 h 13.33333 c 0,7.08772 -6.24561,11.15789 -12.5614,11.15789 -8.14035,0 -14.73684,-8 -14.73684,-17.82456 0,-10.03509 6.59649,-18.10526 14.73684,-18.10526 5.12281,0 9.54386,2.03508 12.91228,7.43859 l 8.63158,-9.47368 c -5.05263,-6.10526 -12.14035,-9.89474 -22.31579,-9.89474 -16.2807,0 -28.21053,13.40351 -28.21053,30.03509 0,16.5614 12.63158,29.96491 28.21053,29.96491 11.36842,0 23.57895,-6.24561 26.73684,-20.91228 z"/>
		<path d="M 584.41392,332.10526 H 551.29111 V 390 h 33.12281 V 378.42105 H 564.4841 v -11.64912 h 19.08772 V 355.19298 H 564.4841 v -11.50877 h 19.92982 z"/>
		<path d="m 669.04661,390 h 13.19298 l -5.19298,-57.89474 h -14.03509 l -12.84211,33.40351 -12.8421,-33.40351 H 623.29222 L 618.09924,390 h 13.19298 l 2.73684,-34.31579 h 0.35088 l 11.85965,33.96491 h 7.85965 l 11.85965,-33.96491 h 0.35087 z"/>
		<path d="M 721.92817,332.10526 H 709.71765 L 686.34923,390 h 14.17544 l 4.2807,-11.57895 h 22.03508 L 731.12116,390 h 14.17544 z m 0.42106,34.73685 H 709.2966 L 715.75274,350 h 0.14035 z"/>
		<path d="m 781.10033,378.07018 c -13.26316,0 -19.08772,-9.26316 -19.08772,-17.05264 0,-7.71929 5.82456,-16.98245 19.08772,-16.98245 6.73684,0 11.36842,3.57895 11.36842,3.57895 l 5.61404,-11.22807 c 0,0 -6.45615,-5.33334 -19.01755,-5.33334 -16.42105,0 -31.36842,13.47369 -31.36842,30.10527 0,16.5614 15.01754,29.89473 31.36842,29.89473 12.5614,0 19.01755,-5.33333 19.01755,-5.33333 l -5.61404,-11.22807 c 0,0 -4.63158,3.57895 -11.36842,3.57895 z"/>
		<path d="M 808.19901,332.10526 V 390 h 16.77193 c 15.92983,0 29.19298,-12.07018 29.19298,-28.98246 0,-16.8421 -13.33333,-28.91228 -29.19298,-28.91228 z m 13.19299,46.10527 v -34.31579 h 2.03508 c 9.82456,0 16.49123,7.50877 16.49123,17.19298 -0.0702,9.68421 -6.73684,17.12281 -16.49123,17.12281 z"/>
		<path d="m 862.41173,361.01754 c 0,16.91228 12.07017,30.03509 29.19298,30.03509 16.63158,0 29.1228,-13.12281 29.1228,-30.03509 0,-16.91228 -13.05263,-29.96491 -29.1228,-29.96491 -15.92983,0 -29.19298,13.05263 -29.19298,29.96491 z m 14.24561,0 c 0,-8.63157 4.77193,-17.26315 14.94737,-17.26315 10.24561,0 14.87719,8.63158 14.87719,17.26315 0,8.63158 -4.35088,17.26316 -14.87719,17.26316 -10.80702,0 -14.94737,-8.63158 -14.94737,-17.26316 z"/>
		<path d="m 944.74179,354.07018 h 0.14035 L 967.89968,390 h 13.19298 v -57.89474 h -13.19298 v 35.92983 h -0.14035 L 944.74179,332.10526 H 931.54881 V 390 h 13.19298 z"/>
		<path d="m 1023.9292,332.10526 h -12.2105 L 988.3503,390 h 14.1754 l 4.2807,-11.57895 h 22.0351 L 1033.1222,390 h 14.1755 z m 0.4211,34.73685 h -13.0526 L 1017.7538,350 h 0.1404 z"/>
		<path d="m 1067.6804,332.10526 h -13.193 V 390 h 33.1228 v -11.57895 h -19.9298 z"/>
		<path d="M 1099.0981,332.10526 V 390 h 16.772 c 15.9298,0 29.1929,-12.07018 29.1929,-28.98246 0,-16.8421 -13.3333,-28.91228 -29.1929,-28.91228 z m 13.193,46.10527 v -34.31579 h 2.0351 c 9.8246,0 16.4912,7.50877 16.4912,17.19298 -0.07,9.68421 -6.7368,17.12281 -16.4912,17.12281 z"/>
	</g>
</svg>
